theme/img/top/txt_n.svg

<svg width="113" height="126" viewBox="0 0 113 126" fill="none" xmlns="http://www.w3.org/2000/svg">
<path d="M82.9268 80.0576C82.292 73.124 81.9746 65.7021 81.9746 57.792V23.5146C81.9258 13.7979 81.5107 6.22949 80.7295 0.80957H112.883C112.102 6.13184 111.687 13.749 111.638 23.6611V103.275C111.687 112.895 112.102 120.341 112.883 125.614H79.9238C77.4824 120.536 73.7227 114.188 68.6445 106.571L40.959 64.6768C36.8086 58.3779 33.2441 52.25 30.2656 46.293C30.9492 53.5684 31.2666 60.9902 31.2178 68.5586V102.177C31.2178 112.577 31.6328 120.39 32.4629 125.614H0.456055C1.28613 120.634 1.70117 112.772 1.70117 102.03V23.1484C1.60352 13.9688 1.18848 6.52246 0.456055 0.80957H33.1221C34.2451 4.47168 37.7852 10.7461 43.7422 19.6328L72.0869 62.1133C76.2373 68.3145 79.8506 74.2959 82.9268 80.0576Z" fill="url(#paint0_linear_3_307)"/>
<defs>
<linearGradient id="paint0_linear_3_307" x1="-667" y1="-42.8157" x2="140.828" y2="385.126" gradientUnits="userSpaceOnUse">
<stop stop-color="#001F63"/>
<stop offset="1" stop-color="#00E1EC"/>
</linearGradient>
</defs>
</svg>

<svg xmlns="http://www.w3.org/2000/svg" width="113" height="126" fill="none"><path fill="url(#a)" d="M82.927 80.058q-.952-10.401-.952-22.266V23.515Q81.9 8.939 80.73.81h32.153q-1.171 7.983-1.245 22.851v79.614q.074 14.43 1.245 22.339h-32.96q-3.66-7.617-11.279-19.043L40.96 64.677q-6.225-9.45-10.693-18.384a223 223 0 0 1 .952 22.266v33.618q0 15.6 1.245 23.437H.456q1.245-7.47 1.245-23.584V23.148Q1.555 9.378.456.81h32.666q1.685 5.493 10.62 18.823l28.345 42.48q6.225 9.302 10.84 17.945"/><defs><linearGradient id="a" x1="-667" x2="140.828" y1="-42.816" y2="385.126" gradientUnits="userSpaceOnUse"><stop stop-color="#001F63"/><stop offset="1" stop-color="#00E1EC"/></linearGradient></defs></svg>
